X:1
T:Skräddarpolskan
C:Trad
R:Polska
Z:Patrik Månsson, 3/10-08
O:Skåne
N:Jmf med +
M:3/4
L:1/8
N: [[!Omtyckta Skånska Allspelslåtar]]
K:D
|: DD DD FD | FF FF AF | AA d2 A>G |FE E2 D2 :|
|: FG1/2F1/2 EE1/2E1/2 EE | FG1/2F1/2 EE1/2E1/2 EE |F>F GG FA | A1/2G1/2F1/2G1/2 E2 D2 :|

